X:216
T:Reel 216
M:4/4
K:Dmaj
L:1/8
DFFA d2cB|AGFG EB,B,2|DFEC D2dB|AFGE FDD2:|d2fd Adfd|Adfd edBc|d2fd AdBd|Adce d2d2|d2fd Adfd|Adfd eBBc|d2ec dcAG|AGED FDD2|
